X: 1356
T: Menekşe Kokulu Yârim
C: (Anonim)
O: Turkey
F: http://compmusic.upf.edu/node/140
N: huseyni--turku--raksaksagi--menekse_kokulu--
N: makam= huseyni
N: form= turku
N: usul= raksaksagi = 9/8
M: 9/8
L: 1/16
K: C _2/4B ^3/4f  
Q: 1/4=240
%%MIDI tuningsystem comma53
e2=f2 a2g2 f2e2 d2c2 B2 | A2 B2c4d2 e8  | \
w:  ARANAĞME  |   | 
e2=f2 a2g2 f2e2 d2c2 B2 | 
w:   | 
A2 B2c2 B2d2 A8  | e2=f2 a2g2 f2e2 d2c2 B2 | \
w:   |  ARANAĞME  | 
A2 B2c4d2 e8  | e2=f2 a2g2 f2e2 d2c2 B2 | 
w:   |   | 
A2 B2c2 B2d2 A8  | d4 e4 ^2/4f2g2 e2e2 d2 | \
w:   |  Me nek şe  ko *  *  ku  | 
e2 d2d2 c2B2 c2d2 e4  | 
w:  lu  *  yâ *  *  rim    | 
d4 e4 ^2/4f2g2 e2e2 d2 | e2 d2d2 c2B2 c2d2 c2B2  | \
w:  Me nek şe  ko *  *  ku  |  lu  *  yâ *  *  rim    | 
e2d2 d2c2 d2c2 BAB2 c2 | 
w:  Ki me  arz_ *  *  ze *  *  *  de  | 
B2 A2A6 c2BA B4  | G2G2 d2c2 d2c2 BAB2 c2 | \
w:  yim  *  ha lim    |  Ki me  arz_ *  *  e *  *  *  de  | 
B2 A2A6 A8  | 
w:  yim  *  ha lim    | 
d4 e4 ^2/4f2g2 e2e2 d2 | e2 d2d2 c2B2 c2d2 e4  | \
w:  E lim den_ al *  *  dı  |  lar  *  yâ *  *  rim    | 
d4 e4 ^2/4f2g2 e2e2 d2 | 
w:  E lim den_ al *  *  dı  | 
e2 d2d2 c2B2 c2d2 c2B2  | e2d2 d2c2 d2c2 BAB2 c2 | \
w:  lar  *  yâ *  *  rim    |  Yâ rim_ al  *  *  be *  *  *  ni   | 
B2 A2A6 c2BA B4  | 
w:  al  *  be ni    | 
G4 d2c2 d2c2 BAB2 c2 | B2 A2A6 A8  | \
w:  Al  da  *  sî ne *  *  *  ne   |  sar  *  be ni    | 
d4 e4 ^2/4f2g2 e2e2 d2 | e2 d2d2 c2B2 c2d2 e4  | 
w:  Yâ rim  gül  dam *  la sı   |  dam *  la *  *  sı    | 
d4 e4 ^2/4f2g2 e2e2 d2 | e2 d2d2 c2B2 c2d2 c2B2  | \
w:  Yâ rim  gül  dam *  la sı   |  dam *  la *  *  sı    | 
e2d2 d2c2 d2c2 BAB2 c2 | 
w:  Yâ *  ri  *  sî ne *  *  *  ye   | 
B2 A2A6 c2BA B4  | G4 d2c2 d2c2 BAB2 c2 | \
w:  sar *  ma sı    |  Yâ ri  *  sî ne *  *  *  ye   | 
B2 A2A6 A8  | e2=f2 a2g2 f2e2 d2c2 B2 | 
w:  sar *  ma sı    |  ARANAĞME  | 
A2 B2c4d2 e8  | e2=f2 a2g2 f2e2 d2c2 B2 | \
w:   |   | 
A2 B2c2 B2d2 A8  | e2=f2 a2g2 f2e2 d2c2 B2 | 
w:   |  ARANAĞME  | 
A2 B2c4d2 e8  | e2=f2 a2g2 f2e2 d2c2 B2 | \
w:   |   | 
A2 B2c2 B2d2 A8  | d4 e4 ^2/4f2g2 e2e2 d2 | 
w:   |  Me nek şe  ko *  *  ku  | 
e2 d2d2 c2B2 c2d2 e4  | d4 e4 ^2/4f2g2 e2e2 d2 | \
w:  lu  *  yâ *  *  rim    |  Me nek şe  ko *  *  ku  | 
e2 d2d2 c2B2 c2d2 c2B2  | 
w:  lu  *  yâ *  *  rim    | 
e2d2 d2c2 d2c2 BAB2 c2 | B2 A2A6 c2BA B4  | \
w:  Ki me  arz_ *  *  ze *  *  *  de  |  yim  *  ha lim    | 
G2G2 d2c2 d2c2 BAB2 c2 | 
w:  Ki me  arz_ *  *  e *  *  *  de  | 
B2 A2A6 A8  | d4 e4 ^2/4f2g2 e2e2 d2 | \
w:  yim  *  ha lim    |  E lim den_ al *  *  dı  | 
e2 d2d2 c2B2 c2d2 e4  | d4 e4 ^2/4f2g2 e2e2 d2 | 
w:  lar  *  yâ *  *  rim    |  E lim den_ al *  *  dı  | 
e2 d2d2 c2B2 c2d2 c2B2  | e2d2 d2c2 d2c2 BAB2 c2 | \
w:  lar  *  yâ *  *  rim    |  Yâ rim_ al  *  *  be *  *  *  ni   | 
B2 A2A6 c2BA B4  | 
w:  al  *  be ni    | 
G4 d2c2 d2c2 BAB2 c2 | B2 A2A6 A8  | \
w:  Al  da  *  sî ne *  *  *  ne   |  sar  *  be ni    | 
d4 e4 ^2/4f2g2 e2e2 d2 | e2 d2d2 c2B2 c2d2 e4  | 
w:  Yâ rim  gül  dam *  la sı   |  dam *  la *  *  sı    | 
d4 e4 ^2/4f2g2 e2e2 d2 | e2 d2d2 c2B2 c2d2 c2B2  | \
w:  Yâ rim  gül  dam *  la sı   |  dam *  la *  *  sı    | 
e2d2 d2c2 d2c2 BAB2 c2 | 
w:  Yâ *  ri  *  sî ne *  *  *  ye   | 
B2 A2A6 c2BA B4  | G4 d2c2 d2c2 BAB2 c2 | \
w:  sar *  ma sı    |  Yâ ri  *  sî ne *  *  *  ye   | 
B2 A2A6 A8  | |


